X: 76
T: Byala Roza
O: Bulgaria
F: http://www.youtube.com/watch?v=x2i9cLk4dTE
F: http://www.youtube.com/watch?v=GwFrphXffTA
F: http://www.youtube.com/watch?v=c3kUTKO_MZg
F: http://www.youtube.com/watch?v=mzbwj1yIdyA
M: 11/8 
L: 1/8
K: Bm
F2F2 EDED-D3    | F2F2 EDED-D3  |\
F2F2 EG3-GzF    | .G2.G2 FE2DCD2|
E2E2 DCDC-C3    | E2E2 DCDC-Cz2 |\
[1C2D2 E2F2 G2F |F4-  F4- F2z   :|
[2C2D2 E2D2 C2B,|B,4-  B,4- B,2z|



